X: 71
T:Scotland the Brave
M:2/4
L:1/8
Q:185
S:AB
R:Reel
K:G
"G"G2 G>A|BG Bd|g2 g>g|gd BG|"C"c2 ec|"G"Bd BG|"D7"A2 d>d|dc BA|!
"G"G2 G>A|BG Bd|g2 g>g|gd BG|"C"c2 ec|"G"Bd BG|"D"A2 GF|"G"G2 z2|!
"D"a2 a>a|af df|"G"g2 b>a|ge d2|"Em"g2 gg|"D"f2 gf|"C"e>g fe|"D"d>e d/2c
/2B/2A/2|!
"G"G2 G>A|BG Bd|g2 g>g|gd BG|"C"c2 ec|"G"Bd BG|"D"A2 GF|"G"G4||
% <A name="D1X072">
